X:1
T:Fäderneslandet
T:Fäderneslandet
T:Bind 2, No. 25
T:Johan Erik Nordblom
T:J. V. Berger
C:J. E. Nordblom
Z:J. V. Berger
%%score [ 1 2 3 4 ]
L:1/8
Q:1/4=92
M:4/4
K:F
V:1 treble-8 nm="T1"
V:2 treble-8 nm="T2"
V:3 bass nm="B1"
V:4 bass nm="B2"
V:1
!f!"^Andante con moto e maestoso" c4 d2 e2 | f6 z2 |!mf! !>!f2 f f !>!c2 c c | .c2 .A2 z4 | %4
w: 1.Herr- li- ga|land!|Fri- he- tens stam- ort på|jor- den!|
w: 2.Bä- garn i|hand!|Så lyd- de fä- der- nes|lä- ra:|
 !>!d2 d d !>!A2 A A | .A2 .F2 z4 | d4 c2 B2 | A6 z2 |!p! B4"^cresc. e rit." A2 G2 | %9
w: Hell dig, du drott- ning i|Nor- den!|Fä- der- nes-|land!|Fä- der- nes-|
w: Lef- ve din kung och din|ä- ra,||||
 !fermata!F6 z2 |!f!"^a tempo" d4 c2 e2 | !fermata!f6 z2 |] %12
w: land!|Fä- der- nes-|land!|
w: |||
V:2
!f! A4 A2 c2 | c6 z2 |!mf! !>!c2 B A !>!G2 A B | .A2 .A2 z4 | !>!A2 G F !>!E2 F G | .F2 .F2 z4 | %6
w: 1.Herr- li- ga|land!|Fri- he- tens stam- ort på|jor- den!|Hell dig, du drott- ning i|Nor- den!|
w: 2.Bä- garn i|hand!|Så lyd- de fä- der- nes|lä- ra:|Lef- ve din kung och din|ä- ra,|
 B4 A2 G2 | F6 z2 |!p! G4"^cresc. e rit." F2 E2 | !fermata!D6 z2 |!f!"^a tempo" B4 =A2 c2 | %11
w: Fä- der- nes-|land!|Fä- der- nes-|land!|Fä- der- nes-|
w: |||||
 !fermata!c6 z2 |] %12
w: land!|
w: |
V:3
!f! F,4 F,2 G,2 | A,6 z2 |!mf! !>!A,2 G, F, !>!E,2 F, G, | .F,2 .F,2 z4 | %4
w: 1.Herr- li- ga|land!|Fri- he- tens stam- ort på|jor- den!|
w: 2.Bä- garn i|hand!|Så lyd- de fä- der- nes|lä- ra:|
 !>!F,2 E, D, !>!^C,2 D, E, | .D,2 .D,2 z4 | F,4 F,2 E,2 | F,6 z2 | %8
w: Hell dig, du drott- ning i|Nor- den!|Fä- der- nes-|land!|
w: Lef- ve din kung och din|ä- ra,|||
!p! D,4"^cresc. e rit." D,2 ^C,2 | !fermata!D,6 z2 |!f!"^a tempo" F,4 F,2 G,2 | !fermata!A,6 z2 |] %12
w: Fä- der- nes-|land!|Fä- der- nes-|land!|
w: ||||
V:4
!f! F,4 D,2 C,2 | F,6 z2 | z8 |!mf! !>!F,2 C C !>!A,2 F, F, | .D,2 .D,2 z4 | %5
w: 1.Herr- li- ga|land!||Fri- he- tens stam- ort på|jor- den!|
w: 2.Bä- garn i|hand!||Så lyd- de fä- der- nes|lä- ra:|
 !>!D,2 A, A, !>!F,2 D, D, | .B,,2 .B,,2 C,2 ^C, C, | D,6 z2 |!p! G,,4"^cresc. e rit." A,,2 A,,2 | %9
w: Hell dig, du drott- ning i|Nor- den! Fä- der- nes-|land!|Fä- der- nes-|
w: Lef- ve din kung och din|ä- ra, Fä- der- nes-|land!||
 !fermata!B,,6 z2 |!f!"^a tempo" B,,4 C,2 C,2 | !fermata![F,,F,]6 z2 |] %12
w: land!|Fä- der- nes-|land!|
w: |||

